Source/Icons/logo_special.svg

<svg width="163" height="35" fill="none" xmlns="http://www.w3.org/2000/svg"><g clip-path="url(#a)"><path fill-rule="evenodd" clip-rule="evenodd" d="M-.151001.702054V34.3021H13.381c2.1814.0533 4.3499-.3481 6.3677-1.1786 2.0178-.8305 3.8405-2.072 5.3523-3.6454 1.5496-1.5773 2.7655-3.4507 3.5751-5.5084.8096-2.0576 1.1963-4.2573 1.1369-6.4676.0594-2.2104-.3273-4.4101-1.1369-6.4677-.8096-2.05765-2.0255-3.93104-3.5751-5.50835-1.5119-1.57329-3.3347-2.81469-5.3524-3.6452C17.7308 1.05034 15.5623.648895 13.381.702054H-.151001ZM7.582 26.9101V8.09105h5.8c1.2025-.0479 2.4018.15577 3.521.59796 1.1193.4422 2.1339 1.1132 2.979 1.97009.8484.9176 1.5055 1.9951 1.9329 3.1695.4273 1.1744.6164 2.4222.5561 3.6705.0603 1.2483-.1287 2.4961-.5561 3.6705-.4273 1.1744-1.0844 2.2519-1.9329 3.1695-.8449.857-1.8595 1.5281-2.9788 1.9703-1.1193.4423-2.3187.6458-3.5212.5977h-5.8v.003Zm34.8-5.952h12.082v-7.3H42.378V8.09105h13.291V.702054H34.645V34.3021H55.91v-7.392H42.378v-5.952h.004Zm36.343 13.344L89.744.702054h-8.458L73.795 25.4221 66.304.702054h-8.457L68.866 34.3021h9.859Zm14.4 0h7.733V.702054h-7.733V34.3021Zm38.615-1.416c2.493-1.3121 4.581-3.2785 6.041-5.688l-6.67-3.84c-.73 1.3009-1.832 2.354-3.165 3.024-1.441.7442-3.043 1.122-4.664 1.1-1.32.0628-2.639-.1478-3.874-.6186-1.235-.4708-2.36-1.1917-3.303-2.1174-.91-.9669-1.616-2.1067-2.077-3.3518-.46-1.2451-.666-2.5701-.605-3.8962-.061-1.3262.145-2.6512.605-3.8963.461-1.2451 1.167-2.3849 2.077-3.3517.943-.92582 2.068-1.64671 3.303-2.11752 1.235-.47081 2.554-.68139 3.874-.61853 1.611-.02301 3.204.34773 4.639 1.08 1.342.67781 2.452 1.73865 3.19 3.04805l6.67-3.84005c-1.487-2.40453-3.59-4.36821-6.09-5.688-2.582-1.39309-5.475-2.1113055-8.409-2.0879956C113.503-.245946 105.485 7.71705 105.691 17.4981c-.208 9.781 7.809 17.747 17.588 17.476 2.95.0272 5.859-.691 8.458-2.088h.003Zm17.881-11.928h12.082v-7.3h-12.085V8.09105h13.29V.702054h-21.023V34.3021h21.265v-7.392h-13.532v-5.952h.003Z" fill="#F0C52E"/></g><defs><clipPath id="a"><path fill="#fff" d="M0 0h163v35H0z"/></clipPath></defs></svg>

<svg width="163" height="35" viewBox="0 0 163 35" fill="none" xmlns="http://www.w3.org/2000/svg">
<g clip-path="url(#clip0_84_69)">
<path fill-rule="evenodd" clip-rule="evenodd" d="M-0.151001 0.702054V34.3021H13.381C15.5624 34.3554 17.7309 33.954 19.7487 33.1235C21.7665 32.293 23.5892 31.0515 25.101 29.4781C26.6506 27.9008 27.8665 26.0274 28.6761 23.9697C29.4857 21.9121 29.8724 19.7124 29.813 17.5021C29.8724 15.2917 29.4857 13.092 28.6761 11.0344C27.8665 8.97675 26.6506 7.10336 25.101 5.52605C23.5891 3.95276 21.7663 2.71136 19.7486 1.88085C17.7308 1.05034 15.5623 0.648895 13.381 0.702054H-0.151001ZM7.582 26.9101V8.09105H13.382C14.5845 8.04315 15.7838 8.24682 16.903 8.68901C18.0223 9.13121 19.0369 9.80221 19.882 10.6591C20.7304 11.5767 21.3875 12.6542 21.8149 13.8286C22.2422 15.003 22.4313 16.2508 22.371 17.4991C22.4313 18.7474 22.2423 19.9952 21.8149 21.1696C21.3876 22.344 20.7305 23.4215 19.882 24.3391C19.0371 25.1961 18.0225 25.8672 16.9032 26.3094C15.7839 26.7517 14.5845 26.9552 13.382 26.9071H7.582V26.9101ZM42.382 20.9581H54.464V13.6581H42.378V8.09105H55.669V0.702054H34.645V34.3021H55.91V26.9101H42.378V20.9581H42.382ZM78.725 34.3021L89.744 0.702054H81.286L73.795 25.4221L66.304 0.702054H57.847L68.866 34.3021H78.725ZM93.125 34.3021H100.858V0.702054H93.125V34.3021ZM131.74 32.8861C134.233 31.574 136.321 29.6076 137.781 27.1981L131.111 23.3581C130.381 24.659 129.279 25.7121 127.946 26.3821C126.505 27.1263 124.903 27.5041 123.282 27.4821C121.962 27.5449 120.643 27.3343 119.408 26.8635C118.173 26.3927 117.048 25.6718 116.105 24.7461C115.195 23.7792 114.489 22.6394 114.028 21.3943C113.568 20.1492 113.362 18.8242 113.423 17.4981C113.362 16.1719 113.568 14.8469 114.028 13.6018C114.489 12.3567 115.195 11.2169 116.105 10.2501C117.048 9.32428 118.173 8.60339 119.408 8.13258C120.643 7.66177 121.962 7.45119 123.282 7.51405C124.893 7.49104 126.486 7.86178 127.921 8.59405C129.263 9.27186 130.373 10.3327 131.111 11.6421L137.781 7.80205C136.294 5.39752 134.191 3.43384 131.691 2.11405C129.109 0.72096 126.216 0.0027445 123.282 0.0260544C113.503 -0.245946 105.485 7.71705 105.691 17.4981C105.483 27.2791 113.5 35.2451 123.279 34.9741C126.229 35.0013 129.138 34.2831 131.737 32.8861H131.74ZM149.621 20.9581H161.703V13.6581H149.618V8.09105H162.908V0.702054H141.885V34.3021H163.15V26.9101H149.618V20.9581H149.621Z" fill="#F0C52E"/>
</g>
<defs>
<clipPath id="clip0_84_69">
<rect width="163" height="35" fill="white"/>
</clipPath>
</defs>
</svg>
